X: 29952
T: Oak House, The
R: reel
M: 4/4
K: Eminor
|:E2 EF EDB,D|A,3 G, A,G,B,D|E2 EF GFEG|FA A/A/A BAGF|
E2 EF EDB,D|A,3 G, A,G,B,D|C3 B, CB,CD|EGFD B,E E/E/E:|
|:BE E/E/E BAFD|C3 B, CDEF|D3 ^C DEFA|Bded B2 G2|
EB B/B/B AFDF|E3 D B,G, A,2|C3 B, CB,CD|EGFD B,E E/E/E:|

